; generated by PrusaSlicer 2.7.1+linux-x64-GTK3 on 2023-12-22 at 02:25:23 UTC

; 

; external perimeters extrusion width = 0.42mm
; perimeters extrusion width = 0.44mm
; infill extrusion width = 0.44mm
; solid infill extrusion width = 0.44mm
; top infill extrusion width = 0.40mm
; first layer extrusion width = 0.42mm

M201 X500 Y500 Z100 E5000 ; sets maximum accelerations, mm/sec^2
M203 X500 Y500 Z10 E60 ; sets maximum feedrates, mm / sec
M204 S500 T1000 ; sets acceleration (S) and retract acceleration (R), mm/sec^2
M205 X8.00 Y8.00 Z0.40 E5.00 ; sets the jerk limits, mm/sec
M205 S0 T0 ; sets the minimum extruding and travel feed rate, mm/sec

; printing object OMG_Detector_1.0_V5.stl id:0 copy 0
; stop printing object OMG_Detector_1.0_V5.stl id:0 copy 0

;TYPE:Custom
G90 ; use absolute coordinates
M83 ; extruder relative mode
M104 S150 ; set temporary nozzle temp to prevent oozing during homing
M140 S60 ; set final bed temp
G4 S30 ; allow partial nozzle warmup
G28 ; home all axis
G1 Z50 F240
G1 X2.0 Y10 F3000
M104 S205 ; set final nozzle temp
M190 S60 ; wait for bed temp to stabilize
M109 S205 ; wait for nozzle temp to stabilize
G1 Z0.28 F240
G92 E0
G1 X2.0 Y140 E10 F1500 ; prime the nozzle
G1 X2.3 Y140 F5000
G92 E0
G1 X2.3 Y10 E10 F1200 ; prime the nozzle
G92 E0
G21 ; set units to millimeters
G90 ; use absolute coordinates
M83 ; use relative distances for extrusion
; Filament gcode
M107
;LAYER_CHANGE
;Z:0.2
;HEIGHT:0.2
;BEFORE_LAYER_CHANGE
G92 E0
;0.2


G1 E-5 F3600
G1 Z.2 F9000
;AFTER_LAYER_CHANGE
;0.2
G1 X104.096 Y97.744
G1 Z.2
G1 E5 F2400
M204 S500
;TYPE:Skirt/Brim
;WIDTH:0.42
G1 F1200
G1 X106.355 Y96.989 E.07468
G1 X124.645 Y96.989 E.57347
G1 X126.321 Y97.383 E.05398
G1 X127.644 Y98.484 E.05397
G1 X128.399 Y100.743 E.07468
G1 X128.399 Y129.743 E.90927
G1 X128.212 Y130.958 E.03854
G1 X127.412 Y132.503 E.05455
G1 X126.967 Y132.965 E.02011
G1 X126.098 Y133.597 E.03369
G1 X125.291 Y133.938 E.02747
G1 X124 Y134.142 E.04098
G1 X107 Y134.142 E.53302
G1 X105.709 Y133.938 E.04098
G1 X104.902 Y133.597 E.02747
G1 X104.033 Y132.965 E.03369
G1 X103.688 Y132.618 E.01534
G1 X102.812 Y131.03 E.05686
G1 X102.601 Y129.743 E.04089
G1 X102.601 Y100.743 E.90927
G1 X102.995 Y99.067 E.05398
G1 X104.058 Y97.79 E.0521
G1 X104.359 Y98.061 F9000
G1 F1200
G1 X104.462 Y97.946 E.00484
G1 X106.355 Y97.366 E.06208
G1 X124.645 Y97.366 E.57347
G1 X126.228 Y97.76 E.05115
G1 X127.442 Y98.85 E.05116
G1 X128.022 Y100.743 E.06208
G1 X128.022 Y129.743 E.90927
G1 X127.846 Y130.867 E.03567
G1 X127.126 Y132.257 E.04908
G1 X126.704 Y132.694 E.01905
G1 X125.912 Y133.269 E.03069
G1 X125.175 Y133.58 E.02508
G1 X124 Y133.765 E.0373
G1 X107 Y133.765 E.53302
G1 X105.825 Y133.58 E.0373
G1 X105.088 Y133.269 E.02508
G1 X104.296 Y132.694 E.03069
G1 X103.965 Y132.362 E.0147
G1 X103.177 Y130.933 E.05117
G1 X102.978 Y129.743 E.03783
G1 X102.978 Y100.743 E.90927
G1 X103.372 Y99.16 E.05115
G1 X104.319 Y98.105 E.04445
; printing object OMG_Detector_1.0_V5.stl id:0 copy 0
G1 E-3.5 F3600
;WIPE_START
G1 F7200
G1 X104.359 Y98.061 E-.02825
G1 X104.462 Y97.946 E-.07333
G1 X106.355 Y97.366 E-.94043
G1 X107.319 Y97.366 E-.45799
;WIPE_END
G1 X107.629 Y101.807 F9000
G1 E5 F2400
;TYPE:Perimeter
;WIDTH:0.419999
G1 F1200
G1 X123.371 Y101.807 E.49358
G1 X123.371 Y109.678 E.24679
G1 X123.371 Y129.114 E.6094
G1 X107.629 Y129.114 E.49358
G1 X107.629 Y101.867 E.85431
G1 X107.252 Y101.43 F9000
G1 F1200
G1 X123.748 Y101.43 E.51722
G1 X123.748 Y109.678 E.25861
G1 X123.748 Y129.491 E.62122
G1 X107.252 Y129.491 E.51722
G1 X107.252 Y101.49 E.87795
G1 X106.875 Y101.053 F9000
;TYPE:External perimeter
G1 F1200
G1 X124.125 Y101.053 E.54086
G1 X124.125 Y109.678 E.27043
G1 X124.125 Y129.631 E.62561
G1 X124.066 Y129.818 E.00615
G1 X123.941 Y129.868 E.00422
G1 X107.112 Y129.868 E.52766
G1 X106.934 Y129.818 E.0058
G1 X106.875 Y129.68 E.00471
G1 X106.875 Y101.113 E.8957
G1 E-3.5 F3600
;WIPE_START
G1 F7200
G1 X106.875 Y101.053 E-.0285
G1 X109.973 Y101.053 E-1.4715
;WIPE_END
G1 X122.479 Y101.928 F9000
G1 E5 F2400
;TYPE:Solid infill
;WIDTH:0.4246
G1 F1200
G1 X123.081 Y102.53 E.02702
G1 X123.081 Y103.07 E.01714
G1 X122.108 Y102.097 E.04367
G1 X121.569 Y102.097 E.01711
G1 X123.081 Y103.61 E.06789
G1 X123.081 Y104.149 E.01711
G1 X121.029 Y102.097 E.0921
G1 X120.489 Y102.097 E.01714
G1 X123.081 Y104.689 E.11634
G1 X123.081 Y105.229 E.01714
G1 X119.949 Y102.097 E.14057
G1 X119.41 Y102.097 E.01711
G1 X123.081 Y105.769 E.16479
G1 X123.081 Y106.308 E.01711
G1 X118.87 Y102.097 E.189
G1 X118.33 Y102.097 E.01714
G1 X123.081 Y106.848 E.21324
G1 X123.081 Y107.388 E.01714
G1 X117.79 Y102.097 E.23747
G1 X117.25 Y102.097 E.01714
G1 X123.081 Y107.928 E.26171
G1 X123.081 Y108.468 E.01714
G1 X116.711 Y102.097 E.28592
G1 X116.171 Y102.097 E.01714
G1 X123.081 Y109.007 E.31014
G1 X123.081 Y109.547 E.01714
G1 X115.631 Y102.097 E.33438
G1 X115.091 Y102.097 E.01714
G1 X123.081 Y110.087 E.35861
G1 X123.081 Y110.627 E.01714
G1 X114.552 Y102.097 E.38283
G1 X114.012 Y102.097 E.01714
G1 X123.081 Y111.166 E.40704
G1 X123.081 Y111.706 E.01714
G1 X113.472 Y102.097 E.43128
G1 X112.932 Y102.097 E.01714
G1 X123.081 Y112.246 E.45551
G1 X123.081 Y112.786 E.01714
G1 X112.392 Y102.097 E.47975
G1 X111.853 Y102.097 E.01711
G1 X123.081 Y113.326 E.50396
G1 X123.081 Y113.865 E.01711
G1 X111.313 Y102.097 E.52818
G1 X110.773 Y102.097 E.01714
G1 X123.081 Y114.405 E.55242
G1 X123.081 Y114.945 E.01714
G1 X110.233 Y102.097 E.57665
G1 X109.694 Y102.097 E.01711
G1 X123.081 Y115.485 E.60087
G1 X123.081 Y116.024 E.01711
G1 X109.154 Y102.097 E.62508
G1 X108.614 Y102.097 E.01714
G1 X123.081 Y116.564 E.64932
G1 X123.081 Y117.104 E.01714
G1 X108.074 Y102.097 E.67355
G1 X107.919 Y102.097 E.00492
G1 X107.919 Y102.482 E.01222
G1 X123.081 Y117.644 E.68051
G1 X123.081 Y118.184 E.01714
G1 X107.919 Y103.022 E.68051
G1 X107.919 Y103.562 E.01714
G1 X123.081 Y118.723 E.68049
G1 X123.081 Y119.263 E.01714
G1 X107.919 Y104.101 E.68051
G1 X107.919 Y104.641 E.01714
G1 X123.081 Y119.803 E.68051
G1 X123.081 Y120.343 E.01714
G1 X107.919 Y105.181 E.68051
G1 X107.919 Y105.721 E.01714
G1 X123.081 Y120.882 E.68049
G1 X123.081 Y121.422 E.01714
G1 X107.919 Y106.26 E.68051
G1 X107.919 Y106.8 E.01714
G1 X123.081 Y121.962 E.68051
G1 X123.081 Y122.502 E.01714
G1 X107.919 Y107.34 E.68051
G1 X107.919 Y107.88 E.01714
G1 X123.081 Y123.042 E.68051
G1 X123.081 Y123.581 E.01711
G1 X107.919 Y108.42 E.68049
G1 X107.919 Y108.959 E.01711
G1 X123.081 Y124.121 E.68051
G1 X123.081 Y124.661 E.01714
G1 X107.919 Y109.499 E.68051
G1 X107.919 Y110.039 E.01714
G1 X123.081 Y125.201 E.68051
G1 X123.081 Y125.74 E.01711
G1 X107.919 Y110.579 E.68049
G1 X107.919 Y111.118 E.01711
G1 X123.081 Y126.28 E.68051
G1 X123.081 Y126.82 E.01714
G1 X107.919 Y111.658 E.68051
G1 X107.919 Y112.198 E.01714
G1 X123.081 Y127.36 E.68051
G1 X123.081 Y127.9 E.01714
G1 X107.919 Y112.738 E.68051
G1 X107.919 Y113.278 E.01714
G1 X123.081 Y128.439 E.68049
G1 X123.081 Y128.824 E.01222
G1 X122.926 Y128.824 E.00492
G1 X107.919 Y113.817 E.67355
G1 X107.919 Y114.357 E.01714
G1 X122.386 Y128.824 E.64932
G1 X121.846 Y128.824 E.01714
G1 X107.919 Y114.897 E.62508
G1 X107.919 Y115.437 E.01714
G1 X121.306 Y128.824 E.60084
G1 X120.766 Y128.824 E.01714
G1 X107.919 Y115.976 E.57663
G1 X107.919 Y116.516 E.01714
G1 X120.227 Y128.824 E.55242
G1 X119.687 Y128.824 E.01714
G1 X107.919 Y117.056 E.52818
G1 X107.919 Y117.596 E.01714
G1 X119.147 Y128.824 E.50394
G1 X118.607 Y128.824 E.01714
G1 X107.919 Y118.135 E.47973
G1 X107.919 Y118.675 E.01714
G1 X118.068 Y128.824 E.45551
G1 X117.528 Y128.824 E.01714
G1 X107.919 Y119.215 E.43128
G1 X107.919 Y119.755 E.01714
G1 X116.988 Y128.824 E.40704
G1 X116.448 Y128.824 E.01714
G1 X107.919 Y120.295 E.3828
G1 X107.919 Y120.834 E.01711
G1 X115.908 Y128.824 E.35859
G1 X115.369 Y128.824 E.01711
G1 X107.919 Y121.374 E.33438
G1 X107.919 Y121.914 E.01714
G1 X114.829 Y128.824 E.31014
G1 X114.289 Y128.824 E.01714
G1 X107.919 Y122.454 E.2859
G1 X107.919 Y122.993 E.01711
G1 X113.749 Y128.824 E.26169
G1 X113.21 Y128.824 E.01711
G1 X107.919 Y123.533 E.23747
G1 X107.919 Y124.073 E.01714
G1 X112.67 Y128.824 E.21324
G1 X112.13 Y128.824 E.01714
G1 X107.919 Y124.613 E.189
G1 X107.919 Y125.153 E.01714
G1 X111.59 Y128.824 E.16476
G1 X111.051 Y128.824 E.01711
G1 X107.919 Y125.692 E.14057
G1 X107.919 Y126.232 E.01714
G1 X110.511 Y128.824 E.11634
G1 X109.971 Y128.824 E.01714
G1 X107.919 Y126.772 E.0921
G1 X107.919 Y127.312 E.01714
G1 X109.431 Y128.824 E.06786
G1 X108.891 Y128.824 E.01714
G1 X107.919 Y127.851 E.04365
G1 X107.919 Y128.391 E.01714
G1 X108.521 Y128.993 E.02702
; stop printing object OMG_Detector_1.0_V5.stl id:0 copy 0
M106 S255
;LAYER_CHANGE
;Z:0.28
;HEIGHT:0.08
;BEFORE_LAYER_CHANGE
G92 E0
;0.28


G1 E-3.5 F3600
;WIPE_START
G1 F7200
G1 X107.919 Y128.391 E-.40439
G1 X107.919 Y127.851 E-.2565
G1 X108.891 Y128.824 E-.65328
G1 X109.282 Y128.824 E-.18583
;WIPE_END
G1 Z.28 F9000
;AFTER_LAYER_CHANGE
;0.28
M104 S200 ; set temperature
G1 X109.282 Y134.142
G1 E5 F2400
;TYPE:Skirt/Brim
;WIDTH:0.42
G1 X107 Y134.142 E.03057
G1 X105.709 Y133.938 E.01751
G1 X104.902 Y133.597 E.01174
G1 X104.033 Y132.965 E.0144
G1 X103.688 Y132.618 E.00656
G1 X102.812 Y131.03 E.0243
G1 X102.601 Y129.743 E.01747
G1 X102.601 Y100.743 E.38855
G1 X102.995 Y99.067 E.02307
G1 X104.096 Y97.744 E.02306
G1 X106.355 Y96.989 E.03191
G1 X124.645 Y96.989 E.24505
G1 X126.321 Y97.383 E.02307
G1 X127.644 Y98.484 E.02306
G1 X128.399 Y100.743 E.03191
G1 X128.399 Y129.743 E.38855
G1 X128.212 Y130.958 E.01647
G1 X127.412 Y132.503 E.02331
G1 X126.967 Y132.965 E.00859
G1 X126.098 Y133.597 E.0144
G1 X125.291 Y133.938 E.01174
G1 X124 Y134.142 E.01751
G1 X109.342 Y134.142 E.19639
G1 X109.342 Y133.765 F9000
G1 F2400
G1 X107 Y133.765 E.03138
G1 X105.825 Y133.58 E.01594
G1 X105.088 Y133.269 E.01072
G1 X104.296 Y132.694 E.01311
G1 X103.965 Y132.362 E.00628
G1 X103.177 Y130.933 E.02186
G1 X102.978 Y129.743 E.01617
G1 X102.978 Y100.743 E.38855
G1 X103.372 Y99.16 E.02186
G1 X104.462 Y97.946 E.02186
G1 X106.355 Y97.366 E.02653
G1 X124.645 Y97.366 E.24505
G1 X126.228 Y97.76 E.02186
G1 X127.442 Y98.85 E.02186
G1 X128.022 Y100.743 E.02653
G1 X128.022 Y129.743 E.38855
G1 X127.846 Y130.867 E.01524
G1 X127.126 Y132.257 E.02097
G1 X126.704 Y132.694 E.00814
G1 X125.912 Y133.269 E.01311
G1 X125.175 Y133.58 E.01072
G1 X124 Y133.765 E.01594
G1 X109.402 Y133.765 E.19559
; printing object OMG_Detector_1.0_V5.stl id:0 copy 0
G1 E-3.5 F3600
;WIPE_START
G1 F7200
G1 X109.342 Y133.765 E-.0285
G1 X107 Y133.765 E-1.11245
G1 X106.253 Y133.647 E-.35905
;WIPE_END
G1 X123.6 Y129.343 F9000
G1 E5 F2400
;TYPE:Perimeter
;WIDTH:0.439999
G1 X107.4 Y129.343 E.22783
G1 X107.4 Y101.789 E.3875
G1 X123.6 Y101.789 E.22783
G1 X123.6 Y109.888 E.1139
G1 X123.6 Y129.283 E.27276
G1 X123.928 Y129.765 F9000
G1 F2400
G1 X107.124 Y129.765 E.23632
G1 X106.993 Y129.73 E.00191
G1 X106.978 Y129.667 E.00091
G1 X106.978 Y101.366 E.39801
G1 X124.022 Y101.366 E.2397
G1 X124.022 Y109.888 E.11985
G1 X124.011 Y129.711 E.27878
G1 X123.979 Y129.732 E.00054
G1 X123.976 Y130.178 F9000
;TYPE:External perimeter
;WIDTH:0.419999
G1 F1500
G1 X107.124 Y130.178 E.22579
G1 X106.763 Y130.088 E.00498
G1 X106.621 Y129.945 E.0027
G1 X106.565 Y129.717 E.00315
G1 X106.565 Y100.953 E.38539
G1 X124.435 Y100.953 E.23943
G1 X124.435 Y109.888 E.11971
G1 X124.435 Y129.647 E.26474
G1 X124.381 Y129.937 E.00395
G1 X124.149 Y130.138 E.00411
G1 X124.034 Y130.165 E.00158
G1 E-3.5 F3600
;WIPE_START
G1 F7200
G1 X123.976 Y130.178 E-.02823
G1 X120.878 Y130.178 E-1.47177
;WIPE_END
G1 X107.841 Y102.148 F9000
G1 E5 F2400
;TYPE:Solid infill
;WIDTH:0.542588
G1 X107.794 Y102.102 E.00115
G1 X107.731 Y102.119 E.00114
G1 X107.714 Y102.182 E.00114
G1 X107.76 Y102.229 E.00115
G1 X107.824 Y102.212 E.00116
;WIDTH:0.439999
G1 X108.499 Y102.114 E.00959
G1 X107.726 Y102.887 E.01537
G1 X107.726 Y103.485 E.00841
G1 X109.097 Y102.114 E.02727
G1 X109.695 Y102.114 E.00841
G1 X107.726 Y104.083 E.03916
G1 X107.726 Y104.681 E.00841
G1 X110.293 Y102.114 E.05105
G1 X110.891 Y102.114 E.00841
G1 X107.726 Y105.279 E.06295
G1 X107.726 Y105.877 E.00841
G1 X111.489 Y102.114 E.07484
G1 X112.087 Y102.114 E.00841
G1 X107.726 Y106.475 E.08673
G1 X107.726 Y107.073 E.00841
G1 X112.685 Y102.114 E.09863
G1 X113.283 Y102.114 E.00841
G1 X107.726 Y107.671 E.11052
G1 X107.726 Y108.269 E.00841
G1 X113.881 Y102.114 E.12241
G1 X114.479 Y102.114 E.00841
G1 X107.726 Y108.867 E.13431
G1 X107.726 Y109.465 E.00841
G1 X115.077 Y102.114 E.1462
G1 X115.675 Y102.114 E.00841
G1 X107.726 Y110.063 E.1581
G1 X107.726 Y110.661 E.00841
G1 X116.273 Y102.114 E.16999
G1 X116.871 Y102.114 E.00841
G1 X107.726 Y111.259 E.18188
G1 X107.726 Y111.857 E.00841
G1 X117.469 Y102.114 E.19378
G1 X118.067 Y102.114 E.00841
G1 X107.726 Y112.455 E.20567
G1 X107.726 Y113.053 E.00841
G1 X118.665 Y102.114 E.21756
G1 X119.263 Y102.114 E.00841
G1 X107.726 Y113.651 E.22946
G1 X107.726 Y114.249 E.00841
G1 X119.861 Y102.114 E.24135
G1 X120.459 Y102.114 E.00841
G1 X107.726 Y114.847 E.25324
G1 X107.726 Y115.445 E.00841
G1 X121.056 Y102.114 E.26513
G1 X121.654 Y102.114 E.00841
G1 X107.726 Y116.043 E.27702
G1 X107.726 Y116.641 E.00841
G1 X122.252 Y102.114 E.28891
G1 X122.85 Y102.114 E.00841
G1 X107.726 Y117.239 E.30081
G1 X107.726 Y117.837 E.00841
G1 X123.274 Y102.288 E.30924
G1 X123.342 Y102.163 E.002
;WIDTH:0.398584
G1 X123.411 Y102.038 E.00181
;WIDTH:0.357168
G1 X123.37 Y102.049 E.00048
G1 X123.35 Y101.978 E.00083
G1 X123.422 Y101.997 E.00084
G1 X123.274 Y102.886 F9000
;WIDTH:0.439999
G1 F2400
G1 X107.726 Y118.435 E.30924
G1 X107.726 Y119.033 E.00841
G1 X123.274 Y103.484 E.30924
G1 X123.274 Y104.082 E.00841
G1 X107.726 Y119.63 E.30923
G1 X107.726 Y120.228 E.00841
G1 X123.274 Y104.68 E.30923
G1 X123.274 Y105.278 E.00841
G1 X107.726 Y120.826 E.30923
G1 X107.726 Y121.424 E.00841
G1 X123.274 Y105.876 E.30923
G1 X123.274 Y106.474 E.00841
G1 X107.726 Y122.022 E.30923
G1 X107.726 Y122.62 E.00841
G1 X123.274 Y107.072 E.30923
G1 X123.274 Y107.67 E.00841
G1 X107.726 Y123.218 E.30923
G1 X107.726 Y123.816 E.00841
G1 X123.274 Y108.268 E.30923
G1 X123.274 Y108.866 E.00841
G1 X107.726 Y124.414 E.30923
G1 X107.726 Y125.012 E.00841
G1 X123.274 Y109.464 E.30923
G1 X123.274 Y110.062 E.00841
G1 X107.726 Y125.61 E.30923
G1 X107.726 Y126.208 E.00841
G1 X123.274 Y110.66 E.30923
G1 X123.274 Y111.258 E.00841
G1 X107.726 Y126.806 E.30923
G1 X107.726 Y127.404 E.00841
G1 X123.274 Y111.856 E.30923
G1 X123.274 Y112.454 E.00841
G1 X107.726 Y128.002 E.30923
G1 X107.726 Y128.6 E.00841
G1 X123.274 Y113.052 E.30923
G1 X123.274 Y113.65 E.00841
G1 X107.907 Y129.017 E.30563
G1 X107.785 Y129.064 E.00184
;WIDTH:0.398584
G1 X107.662 Y129.11 E.00167
;WIDTH:0.357168
G1 X107.591 Y129.091 E.00083
G1 X107.61 Y129.163 E.00084
G1 X107.651 Y129.152 E.00048
G1 X108.505 Y129.017 F9000
;WIDTH:0.439999
G1 F2400
G1 X123.274 Y114.248 E.29374
G1 X123.274 Y114.846 E.00841
G1 X109.103 Y129.017 E.28184
G1 X109.701 Y129.017 E.00841
G1 X123.274 Y115.444 E.26995
G1 X123.274 Y116.042 E.00841
G1 X110.299 Y129.017 E.25806
G1 X110.897 Y129.017 E.00841
G1 X123.274 Y116.64 E.24616
G1 X123.274 Y117.238 E.00841
G1 X111.495 Y129.017 E.23427
G1 X112.093 Y129.017 E.00841
G1 X123.274 Y117.836 E.22238
G1 X123.274 Y118.434 E.00841
G1 X112.691 Y129.017 E.21048
G1 X113.289 Y129.017 E.00841
G1 X123.274 Y119.032 E.19859
G1 X123.274 Y119.63 E.00841
G1 X113.887 Y129.017 E.18669
G1 X114.485 Y129.017 E.00841
G1 X123.274 Y120.228 E.1748
G1 X123.274 Y120.826 E.00841
G1 X115.083 Y129.017 E.16291
G1 X115.681 Y129.017 E.00841
G1 X123.274 Y121.424 E.15101
G1 X123.274 Y122.022 E.00841
G1 X116.279 Y129.017 E.13912
G1 X116.877 Y129.017 E.00841
G1 X123.274 Y122.619 E.12724
G1 X123.274 Y123.217 E.00841
G1 X117.475 Y129.017 E.11534
G1 X118.073 Y129.017 E.00841
G1 X123.274 Y123.815 E.10345
G1 X123.274 Y124.413 E.00841
G1 X118.671 Y129.017 E.09156
G1 X119.269 Y129.017 E.00841
G1 X123.274 Y125.011 E.07966
G1 X123.274 Y125.609 E.00841
G1 X119.866 Y129.017 E.06778
G1 X120.464 Y129.017 E.00841
G1 X123.274 Y126.207 E.05589
G1 X123.274 Y126.805 E.00841
G1 X121.062 Y129.017 E.04399
G1 X121.66 Y129.017 E.00841
G1 X123.274 Y127.403 E.0321
